Numix/16/status/indicator-keyboard-Ja.svg

<?xml version="1.0" encoding="UTF-8" standalone="no"?>
<svg
   xmlns:dc="http://purl.org/dc/elements/1.1/"
   xmlns:cc="http://creativecommons.org/ns#"
   xmlns:rdf="http://www.w3.org/1999/02/22-rdf-syntax-ns#"
   xmlns:svg="http://www.w3.org/2000/svg"
   xmlns="http://www.w3.org/2000/svg"
   xmlns:sodipodi="http://sodipodi.sourceforge.net/DTD/sodipodi-0.dtd"
   xmlns:inkscape="http://www.inkscape.org/namespaces/inkscape"
   viewBox="0 0 16 16"
   id="svg2"
   version="1.1"
   inkscape:version="0.91 r13725"
   sodipodi:docname="indicator-keyboard-Ja.svg">
  <metadata
     id="metadata13">
    <rdf:RDF>
      <cc:Work
         rdf:about="">
        <dc:format>image/svg+xml</dc:format>
        <dc:type
           rdf:resource="http://purl.org/dc/dcmitype/StillImage" />
      </cc:Work>
    </rdf:RDF>
  </metadata>
  <defs
     id="defs11" />
  <sodipodi:namedview
     pagecolor="#ffffff"
     bordercolor="#666666"
     borderopacity="1"
     objecttolerance="10"
     gridtolerance="10"
     guidetolerance="10"
     inkscape:pageopacity="0"
     inkscape:pageshadow="2"
     inkscape:window-width="640"
     inkscape:window-height="480"
     id="namedview9"
     showgrid="false"
     inkscape:zoom="14.75"
     inkscape:cx="8"
     inkscape:cy="8"
     inkscape:window-x="65"
     inkscape:window-y="24"
     inkscape:window-maximized="0"
     inkscape:current-layer="svg2" />
  <path
     style="fill:#ececec;fill-opacity:1"
     d="M 1.5996094 0 C 0.71320937 2.9605947e-16 0 0.71320937 0 1.5996094 L 0 14.400391 C 2.9605947e-16 15.286791 0.71320937 16 1.5996094 16 L 14.400391 16 C 15.286791 16 16 15.286791 16 14.400391 L 16 1.5996094 C 16 0.71320937 15.286791 0 14.400391 0 L 1.5996094 0 z M 6.8339844 4.8144531 L 7.4453125 4.8144531 L 7.4453125 9.0898438 C 7.4453125 9.3898438 7.4154687 9.6677812 7.3554688 9.9257812 C 7.2954688 10.177782 7.1890625 10.399797 7.0390625 10.591797 C 6.8950625 10.777797 6.7010781 10.925203 6.4550781 11.033203 C 6.2150781 11.135203 5.912875 11.185547 5.546875 11.185547 C 5.330875 11.185547 5.1311719 11.165047 4.9511719 11.123047 C 4.7711719 11.087047 4.6126094 11.042281 4.4746094 10.988281 C 4.3366094 10.934281 4.2190469 10.876406 4.1230469 10.816406 C 4.0330469 10.756406 3.9659688 10.702297 3.9179688 10.654297 L 4.2050781 10.160156 C 4.2590781 10.208156 4.3243438 10.262266 4.4023438 10.322266 C 4.4863438 10.376266 4.5834062 10.426609 4.6914062 10.474609 C 4.7994062 10.522609 4.9187813 10.561797 5.0507812 10.591797 C 5.1827813 10.621797 5.3264219 10.636719 5.4824219 10.636719 C 5.9444219 10.636719 6.284 10.517344 6.5 10.277344 C 6.722 10.031343 6.8339844 9.6133906 6.8339844 9.0253906 L 6.8339844 4.8144531 z M 10.408203 6.2890625 C 10.714203 6.2890625 10.973594 6.3357812 11.183594 6.4257812 C 11.399594 6.5097813 11.573078 6.6291563 11.705078 6.7851562 C 11.837078 6.9351563 11.932187 7.1142187 11.992188 7.3242188 C 12.052188 7.5342188 12.082031 7.7637656 12.082031 8.0097656 L 12.082031 10.943359 C 12.022031 10.961359 11.936266 10.981859 11.822266 11.005859 C 11.708266 11.023859 11.575781 11.044359 11.425781 11.068359 C 11.275781 11.092359 11.107875 11.111047 10.921875 11.123047 C 10.741875 11.141047 10.555281 11.150391 10.363281 11.150391 C 10.117281 11.150391 9.8896875 11.122359 9.6796875 11.068359 C 9.4756875 11.014359 9.296625 10.930406 9.140625 10.816406 C 8.990625 10.696406 8.8692969 10.547188 8.7792969 10.367188 C 8.6952969 10.181188 8.6542969 9.9554065 8.6542969 9.6914062 C 8.6542969 9.4394062 8.7028281 9.2249219 8.7988281 9.0449219 C 8.8948281 8.8649219 9.029125 8.7175156 9.203125 8.6035156 C 9.377125 8.4835156 9.5842187 8.3957969 9.8242188 8.3417969 C 10.064219 8.2877969 10.325422 8.2617188 10.607422 8.2617188 C 10.691422 8.2617188 10.777188 8.2672969 10.867188 8.2792969 C 10.963187 8.2852969 11.054672 8.2964531 11.138672 8.3144531 C 11.228672 8.3264531 11.303281 8.341375 11.363281 8.359375 C 11.429281 8.371375 11.474047 8.3844844 11.498047 8.3964844 L 11.498047 8.1074219 C 11.498047 7.9454219 11.486891 7.790625 11.462891 7.640625 C 11.438891 7.484625 11.384781 7.3465625 11.300781 7.2265625 C 11.222781 7.1005625 11.107031 7.0016875 10.957031 6.9296875 C 10.813031 6.8516875 10.622812 6.8125 10.382812 6.8125 C 10.040813 6.8125 9.7851875 6.8367656 9.6171875 6.8847656 C 9.4491875 6.9327656 9.3260469 6.9719531 9.2480469 7.0019531 L 9.1660156 6.4882812 C 9.2680156 6.4402812 9.4247656 6.3955156 9.6347656 6.3535156 C 9.8507656 6.3115156 10.108203 6.2890625 10.408203 6.2890625 z M 10.589844 8.765625 C 10.445844 8.765625 10.294672 8.7767813 10.138672 8.8007812 C 9.9826721 8.8187812 9.8390312 8.8635469 9.7070312 8.9355469 C 9.5750313 9.0015469 9.4668125 9.0948438 9.3828125 9.2148438 C 9.2988125 9.3348438 9.2578125 9.4934062 9.2578125 9.6914062 C 9.2578125 9.8654062 9.2838906 10.012812 9.3378906 10.132812 C 9.3978906 10.252812 9.4780781 10.349875 9.5800781 10.421875 C 9.6880781 10.493875 9.8149844 10.546031 9.9589844 10.582031 C 10.108984 10.612031 10.276891 10.628906 10.462891 10.628906 C 10.690891 10.628906 10.888641 10.621375 11.056641 10.609375 C 11.230641 10.591375 11.378047 10.570875 11.498047 10.546875 L 11.498047 8.9082031 C 11.432047 8.8782031 11.327594 8.8483594 11.183594 8.8183594 C 11.039594 8.7823594 10.841844 8.765625 10.589844 8.765625 z "
     id="path4" />
</svg>

<svg xmlns="http://www.w3.org/2000/svg" viewBox="0 0 16 16">
 <path d="m 1.6 0 c -0.886 0 -1.6 0.713 -1.6 1.6 l 0 12.801 c 0 0.886 0.713 1.6 1.6 1.6 l 12.801 0 c 0.886 0 1.6 -0.713 1.6 -1.6 l 0 -12.801 c 0 -0.886 -0.713 -1.6 -1.6 -1.6 l -12.801 0 z m 5.234 4.814 l 0.611 0 l 0 4.275 c 0 0.3 -0.03 0.578 -0.09 0.836 c -0.06 0.252 -0.166 0.474 -0.316 0.666 c -0.144 0.186 -0.338 0.333 -0.584 0.441 c -0.24 0.102 -0.542 0.152 -0.908 0.152 c -0.216 0 -0.416 -0.021 -0.596 -0.063 c -0.18 -0.036 -0.339 -0.081 -0.477 -0.135 c -0.138 -0.054 -0.256 -0.112 -0.352 -0.172 c -0.09 -0.06 -0.157 -0.114 -0.205 -0.162 l 0.287 -0.494 c 0.054 0.048 0.119 0.102 0.197 0.162 c 0.084 0.054 0.181 0.104 0.289 0.152 c 0.108 0.048 0.227 0.087 0.359 0.117 c 0.132 0.03 0.276 0.045 0.432 0.045 c 0.462 0 0.802 -0.119 1.018 -0.359 c 0.222 -0.246 0.334 -0.664 0.334 -1.252 l 0 -4.211 z m 3.574 1.475 c 0.306 0 0.565 0.047 0.775 0.137 c 0.216 0.084 0.389 0.203 0.521 0.359 c 0.132 0.15 0.227 0.329 0.287 0.539 c 0.06 0.21 0.09 0.44 0.09 0.686 l 0 2.934 c -0.06 0.018 -0.146 0.039 -0.26 0.063 c -0.114 0.018 -0.246 0.039 -0.396 0.063 c -0.15 0.024 -0.318 0.043 -0.504 0.055 c -0.18 0.018 -0.367 0.027 -0.559 0.027 c -0.246 0 -0.474 -0.028 -0.684 -0.082 c -0.204 -0.054 -0.383 -0.138 -0.539 -0.252 c -0.15 -0.12 -0.271 -0.269 -0.361 -0.449 c -0.084 -0.186 -0.125 -0.412 -0.125 -0.676 c 0 -0.252 0.049 -0.466 0.145 -0.646 c 0.096 -0.18 0.23 -0.327 0.404 -0.441 c 0.174 -0.12 0.381 -0.208 0.621 -0.262 c 0.24 -0.054 0.501 -0.08 0.783 -0.08 c 0.084 0 0.17 0.006 0.26 0.018 c 0.096 0.006 0.187 0.017 0.271 0.035 c 0.09 0.012 0.165 0.027 0.225 0.045 c 0.066 0.012 0.111 0.025 0.135 0.037 l 0 -0.289 c 0 -0.162 -0.011 -0.317 -0.035 -0.467 c -0.024 -0.156 -0.078 -0.294 -0.162 -0.414 c -0.078 -0.126 -0.194 -0.225 -0.344 -0.297 c -0.144 -0.078 -0.334 -0.117 -0.574 -0.117 c -0.342 0 -0.598 0.024 -0.766 0.072 c -0.168 0.048 -0.291 0.087 -0.369 0.117 l -0.082 -0.514 c 0.102 -0.048 0.259 -0.093 0.469 -0.135 c 0.216 -0.042 0.473 -0.064 0.773 -0.064 z m 0.182 2.477 c -0.144 0 -0.295 0.011 -0.451 0.035 c -0.156 0.018 -0.3 0.063 -0.432 0.135 c -0.132 0.066 -0.24 0.159 -0.324 0.279 c -0.084 0.12 -0.125 0.279 -0.125 0.477 c 0 0.174 0.026 0.321 0.08 0.441 c 0.06 0.12 0.14 0.217 0.242 0.289 c 0.108 0.072 0.235 0.124 0.379 0.16 c 0.15 0.03 0.318 0.047 0.504 0.047 c 0.228 0 0.426 -0.008 0.594 -0.02 c 0.174 -0.018 0.321 -0.039 0.441 -0.063 l 0 -1.639 c -0.066 -0.03 -0.17 -0.06 -0.314 -0.09 c -0.144 -0.036 -0.342 -0.053 -0.594 -0.053 z" style="fill:#ececec;fill-opacity:1"/>
</svg>
